!!!!SEGMENT: pl-kk--kk-i-386--003-006_anonim--missa-3tia-benedictus.krn
!!!cenid: 18xx:4521
!!!COM: Anonim
!!!COM-rismID: pe30004985
!!!CDT:
!!!CNT:
!!!OPR: Missa 3tia
!!!OTL: Benedictus
!!!OMV: 006
!!!PDT:
!!!AGN: Sacred
!!!YEC: Copyright 2022 Narodowy Instytut Fryderyka Chopina (https://polishscores.org)
!!!YEM: License CC-BY-4.0 (https://creativecommons.org/licenses/by/4.0)
!!!SMS-siglum: PL-Kk
!!!SMS-shelfmark: Kk.I.386
!!!SMS-variant:
!!!SMS-altvar:
!!!SMS-shelfwork: 003-006 M
!!!NIFC-rismSourceID: 1001218240
!!!NIFC-rismChildID: 1001218244
!!!NIFC-islandoraID: pl-kk:16060
!!!URL-pdf-islandora: https://repozytorium.nifc.pl/islandora/object/pl-kk%3A16060/datastream/PDF/view
!!!URL-scan: https://polish.musicsources.pl/pl/lokalizacje/galeria/rekopisy/7134/3 @EN{Scan on Polish Music Sources Website} @PL{Skany w portalu Dziedzictwo Muzyki Polskiej w otwartym dostępie}
!!!IIIF:
!!!ONB-nifc: UWAGA: Części Missy 3tia: Kyrie, Gloria, Graduale, Offertorium, Sanctus, Benedictus, Agnus. Zakres skanów: S -9-11, A – 19-21, T – 29-31, B – 39-41
!!!AIN: 1 alto 1 bass 1 soprn 1 tenor
!!!key:
**kern	**text	**kern	**text	**kern	**text	**kern	**text
*part4	*part4	*part3	*part3	*part2	*part2	*part1	*part1
*staff4	*staff4	*staff3	*staff3	*staff2	*staff2	*staff1	*staff1
*I"Basso.	*	*I"Tenore.	*	*I"Alto.	*	*I"Soprano.	*
*I'B	*	*I'T	*	*I'A	*	*I'S	*
*Ibass	*	*Itenor	*	*Ialto	*	*Isoprn	*
*ICvox	*	*ICvox	*	*ICvox	*	*ICvox	*
*clefF4	*	*clefC4	*	*clefC3	*	*clefC1	*
*k[]	*	*k[]	*	*k[]	*	*k[]	*
*C:	*	*C:	*	*C:	*	*C:	*
*M3/4	*	*M3/4	*	*M3/4	*	*M3/4	*
!LO:TX:a:t=in C.	!	!	!	!LO:TX:a:t=in C.	!	!	!
8G\	Be-	8G/	Be-	8g\	Be-	8g\	Be-
8G\	-ne-	8G/	-ne-	8g\	-ne-	8g\	-ne-
=1	=1	=1	=1	=1	=1	=1	=1
4C/	-dic-	8.c\L	-dic-	8.g\L	-dic-	8.ee\L	-dic-
.	.	16B\Jk	.	16f\Jk	.	16dd\Jk	.
4C/	-tus	4c\	-tus	4e\	-tus	4cc\	-tus
4C/	qui	4c\	qui	4g\	qui	4ee\	qui
=2	=2	=2	=2	=2	=2	=2	=2
*	*	*2\right	*	*2\right	*	*2\right	*
2C/	ve-	2c\	ve-	2a\	ve-	2ff\	ve-
4C/	-nit	4c\	-nit	4g\	-nit	4ee\	-nit
=3	=3	=3	=3	=3	=3	=3	=3
4GG/	ve-	4B\	ve-	4f\	ve-	8.dd\L	ve-
.	.	.	.	.	.	16ee\Jk	.
4GG/	-nit	4B\	-nit	4f\	-nit	4dd\	-nit
4r	.	4r	.	4r	.	4r	.
=4	=4	=4	=4	=4	=4	=4	=4
4AA/	ve-	4A\	qui	4e\	qui	4cc\	qui
4GG/	.	4B\	ve-	2g\	ve-	4dd\	ve-
4C/	.	4c\	.	.	.	4ee\	.
!LO:LB:g=original	!	!LO:LB:g=original	!	!LO:LB:g=original	!	!LO:LB:g=original	!
=5	=5	=5	=5	=5	=5	=5	=5
4GG/	-nit,	4B\	-nit,	4g\	-nit	4dd\	-nit
4r	.	4r	.	4r	.	4r	.
4G\	in	4G/	in	4g\	in	4g\	in
=6	=6	=6	=6	=6	=6	=6	=6
4C/	no-	8.c\L	no-	8.g\L	no-	8.ee\L	no-
.	.	16B\Jk	.	16f\Jk	.	16dd\Jk	.
4C/	-mi-	4c\	-mi-	4e\	-mi-	4cc\	-mi-
4C/	-ne	4c\	-ne	4g\	-ne	4ee\	-ne
=7	=7	=7	=7	=7	=7	=7	=7
4AA/	no-	2c\	Do-	2a\	Do-	4.ff#X\	no-
4AA/	-mi-	.	.	.	.	.	.
.	.	.	.	.	.	8ff#\	-mi-
4AA#X/	-ne	4c#X\	-mi-	4g\	.	4ee\	-ne
=8	=8	=8	=8	=8	=8	=8	=8
8.BB/	Do-	2B\	-ni	8.f#X\L	-mi-	8.dd#X\	Do-
16BB/	-mi-	.	.	16g\Jk	.	16ee\	-mi-
4BB/	-ni,	.	.	4f#\	-ni,	4dd#\	-ni,
4r	.	4r	.	4r	.	4r	.
=9	=9	=9	=9	=9	=9	=9	=9
4E\	Do-	4B\	Do-	4g\	Do-	4ee\	Do-
4D\	.	4d\	.	4a\	.	8gg\L	.
.	.	.	.	.	.	8ffn\J	.
4GG/	-mi-	4B\	-mi-	4fn\	-mi-	8dd\L	-mi-
.	.	.	.	.	.	8ee\J	.
=10	=10	=10	=10	=10	=10	=10	=10
4C/	-ni	4c\	-ni	4e\	-ni	4cc\	-ni,
!	!	!	!	!	!	!LO:LB:g=original	!
4r	.	4r	.	4r	.	4r	.
8C/	be-	4G/	Be-	4c\	Be-	8ee\	Be-
8C/	-ne-	.	.	.	.	8ee\	-ne-
!LO:LB:g=original	!	!LO:LB:g=original	!	!LO:LB:g=original	!	!	!
=11	=11	=11	=11	=11	=11	=11	=11
8D\	-dic-	8F#X/L	.	8d\L	.	4dd\	-dic-
8D\	-tus	8G/J	.	8e\J	.	.	.
4r	.	8A\L	.	8f#X\L	.	4dd\	-tus
.	.	8B\J	.	8g\J	.	.	.
8D\	be-	8c\L	-ne-	8a\L	-ne-	4dd\	qui
8D\	-ne-	8A\J	.	8f#\J	.	.	.
=12	=12	=12	=12	=12	=12	=12	=12
4G\	-dic-	8.B\L	-dic-	8.g\L	-dic-	2dd\	ve-
.	.	16c\Jk	.	16a\Jk	.	.	.
8G\L	-tus	4B\	-tus	4g\	-tus	.	.
8D\J	.	.	.	.	.	.	.
8BB/L	qui	4B\	qui	4g\	qui	4dd#X\	.
8GG/J	.	.	.	.	.	.	.
=13	=13	=13	=13	=13	=13	=13	=13
4E\	ve-	8B\L	ve-	8g#X\L	ve-	2ee\	-nit
.	.	8A\J	.	8f#X\J	.	.	.
4E\	.	8B\L	.	8g#\L	.	.	.
.	.	8c\J	.	8a\J	.	.	.
8E\	-nit	8d\L	-nit	8b\L	-nit	4ee\	qui
8E\	in	8B\J	.	8g#\J	.	.	.
=14	=14	=14	=14	=14	=14	=14	=14
4A\	no-	8.c\L	ve-	8.a\L	ve-	4ee\	ve-
.	.	16d\Jk	.	16b\Jk	.	.	.
8A\L	.	4c\	-nit	4a\	-nit	4ee\	-nit
8E\J	-mi-	.	.	.	.	.	.
8C/L	-ne	8r	.	8r	.	8r	.
8AA/J	.	8c\	in	8gn\	in	8ee\	in
=15	=15	=15	=15	=15	=15	=15	=15
4D\	no-	4c\	no-	8.f#X\L	no-	8.dd\L	no-
.	.	.	.	16g\Jk	.	16ee\Jk	.
!	!	!	!	!LO:LB:g=original	!	!	!
4D\	-mi-	4c\	-mi-	4a\	-mi-	4ff#X\	-mi-
4D\	-ne	4c\	-ne	4a\	-ne	4ff#\	-ne
!LO:LB:g=original	!	!LO:LB:g=original	!	!	!	!	!
=16	=16	=16	=16	=16	=16	=16	=16
*2\right	*	*	*	*	*	*	*
2G\	Do-	4B\	Do-	4g\	Do-	2gg\	Do-
.	.	4c\	.	4a\	.	.	.
4GG/	-mi-	4e\	-mi-	4cc\	-mi-	4gg\	-mi-
!	!	!	!	!	!	!LO:LB:g=original	!
=17	=17	=17	=17	=17	=17	=17	=17
4.GG;/	-ni.	4.d;\	-ni,	4.b;\	-ni,	4.gg;\	-ni,
8r	.	8r	.	8r	.	8g\	qui
4r	.	4r	.	4r	.	(8b\L	ve-
.	.	.	.	.	.	8cc\J)	.
=18	=18	=18	=18	=18	=18	=18	=18
!LO:TX:b:t=1.	!	!	!	!LO:TX:a:t=1.	!	!	!
2.r	.	4r	.	2.r	.	4.dd\	-nit,
.	.	8r	.	.	.	.	.
.	.	8G\	qui	.	.	8b\	qui
.	.	8B\L	ve-	.	.	8dd\L	ve-
.	.	8c\J	.	.	.	8ee\J	.
=19	=19	=19	=19	=19	=19	=19	=19
4r	.	4.d\	-nit	4r	.	4.ff\	-nit
8r	.	.	.	8r	.	.	.
8F\	ve-	8B\	in	8g\	ve-	8dd\	in
8E\	-nit	8c\	no-	8g\	-nit	8ee\L	.
8D\	in	8d\	-mi-	8g\	in	8ff\J	.
=20	=20	=20	=20	=20	=20	=20	=20
2C/	no-	4.e\	-ne	2g\	no-	4.gg\	no-
.	.	8c\	no-	.	.	8ee\	.
8E\	-mi-	8A\	-mi-	8e\	-mi-	8cc\	-mi-
8C\	-ne	8d\	-ne	8g\	-ne	8ee\	-ne
!	!	!LO:LB:g=original	!	!	!	!	!
=21	=21	=21	=21	=21	=21	=21	=21
8.G\	Do-	8c\	Do-	8g\	Do-	8ee\	Do-
.	.	8c\	-mi-	8g\	-mi-	8ee\	-mi-
16GG/	-mi-	.	.	.	.	.	.
!	!	!	!	!LO:LB:g=original	!	!	!
4GG/	-ni,	4B\	-ni,	4g\	-ni,	4dd\	-ni
4r	.	4r	.	4r	.	4r	.
!LO:LB:g=original	!	!	!	!	!	!LO:LB:g=original	!
=22	=22	=22	=22	=22	=22	=22	=22
!	!	!LO:TX:a:t=1.	!	!LO:TX:a:t=1.	!	!LO:TX:a:t=1.	!
4c\	O-	2.r	.	2.r	.	2.r	.
4B\	-san-	.	.	.	.	.	.
4A\	-na	.	.	.	.	.	.
=23	=23	=23	=23	=23	=23	=23	=23
4G\	in	4r	.	4r	.	4r	.
4F\	.	4r	.	4r	.	4r	.
4E\	ex-	4c\	O-	4g\	o-	4ee\	o-
=24	=24	=24	=24	=24	=24	=24	=24
2D\	-cel-	2c\	-san-	2a\	-san-	2ff\	-san-
4GG/	.	4B\	.	4g\	.	4dd\	.
=25	=25	=25	=25	=25	=25	=25	=25
4C/	-sis	4.c\	-na	4.g\	-na,	4.ee\	-na
4r	.	.	.	.	.	.	.
.	.	8r	.	8c\	O-	8r	.
4r	.	4r	.	8e\L	-san-	4r	.
.	.	.	.	8g\J	.	.	.
=26	=26	=26	=26	=26	=26	=26	=26
!LO:TX:b:t=1.	!	!	!	!	!	!LO:TX:a:t=1.	!
2.r	.	4r	.	4cc\	-na	2.r	.
.	.	8r	.	8r	.	.	.
.	.	8E/	o-	8c\	O-	.	.
.	.	8G\L	-san-	8e\L	-san-	.	.
.	.	8c\J	.	8g\J	.	.	.
=27	=27	=27	=27	=27	=27	=27	=27
4r	.	4e\	-na	4cc\	-na	4r	.
!	!	!LO:LB:g=original	!	!	!	!	!
8r	.	8r	.	8r	.	8r	.
8C/	O-	8G/	O-	8e\	o-	8g\	o-
!	!	!	!	!LO:LB:g=original	!	!	!
8C/	-san-	8G/	-san-	8e\	-san-	8cc\	-san-
8C/	-na	8c\	-na	8g\	-na	8ee\	-na
=28	=28	=28	=28	=28	=28	=28	=28
2C/	in	2e\	in	2b-X\	in	4.gg\	in
.	.	.	.	.	.	8ee\L	.
8D\L	ex-	4c\	ex-	4b-\	ex-	8ff\J	.
8E\J	.	.	.	.	.	8gg\	ex-
=29	=29	=29	=29	=29	=29	=29	=29
2F\	-cel-	2c\	-cel-	2a\	-cel-	2aa\	-cel-
4E\	-sis	4c#X\	-sis	4a\	-sis	4gg\	-sis
!	!	!	!	!	!	!LO:LB:g=original	!
=30	=30	=30	=30	=30	=30	=30	=30
4D\	O-	4d\	O-	4a\	O-	4ff\	o-
4G\	-san-	4cn\	-san-	4g\	-san-	4ee\	-san-
4F\	-na	4B\	-na	4g\	-na	4dd\	-na
=31	=31	=31	=31	=31	=31	=31	=31
4E/	in	2c\	in	4g\	in	2gg\	in
4C/	.	.	.	4e\	.	.	.
4AA/	ex-	4c\	ex-	4f\	ex-	8cc\L	ex-
.	.	.	.	.	.	8dd\J	.
=32	=32	=32	=32	=32	=32	=32	=32
2.GG/	-cel-	2c\	-cel-	2g\	-cel-	2ee\	-cel-
.	.	4B\	.	4f\	.	4dd\	.
=33	=33	=33	=33	=33	=33	=33	=33
2C/	-sis.	2c\	-sis.	2.e\	-sis.	2.cc\	-sis.
4ryy	.	4r	.	.	.	.	.
==	==	==	==	==	==	==	==
*-	*-	*-	*-	*-	*-	*-	*-
!!!system-decoration: [(s1,s2,s3,s4)]
!!!ENC: Andrzej Gręziak
!!!END: 2023-11-02
!!!ENC: Leszek Kubiak
!!!END: 2024-06-28
